context/brand-context/default/img/icons/article.svg

<svg id="i-article" viewBox="0 0 18 18" xmlns="http://www.w3.org/2000/svg"><path d="m13 15v-12.9906311c0-.0073595-.0019884-.0093689.0014977-.0093689l-11.00158888.00087166v13.00506804c0 .5482678.44615281.9940603.99415146.9940603h10.27350412c-.1701701-.2941734-.2675644-.6357129-.2675644-1zm-12 .0059397v-13.00506804c0-.5562408.44704472-1.00087166.99850233-1.00087166h11.00299537c.5510129 0 .9985023.45190985.9985023 1.0093689v2.9906311h3v9.9914698c0 1.1065798-.8927712 2.0085302-1.9940603 2.0085302h-12.01187942c-1.09954652 0-1.99406028-.8927712-1.99406028-1.9940603zm13-9.0059397v9c0 .5522847.4477153 1 1 1s1-.4477153 1-1v-9zm-10-2h7v4h-7zm1 1v2h5v-2zm-1 4h7v1h-7zm0 2h7v1h-7zm0 2h7v1h-7z" fill="currentColor" fill-rule="evenodd"/></svg>

<svg id="i-article" viewBox="0 0 18 18" xmlns="http://www.w3.org/2000/svg"><path d="M13 15V2.01c0-.008-.002-.01.001-.01H2v13.006c0 .548.446.994.994.994h10.274A1.99 1.99 0 0 1 13 15zm-12 .006V2C1 1.445 1.447 1 1.999 1H13c.552 0 .999.452.999 1.01V5h3v9.991A2.003 2.003 0 0 1 15.006 17H2.994C1.894 17 1 16.107 1 15.006zM14 6v9a1 1 0 0 0 2 0V6zM4 4h7v4H4zm1 1v2h5V5zM4 9h7v1H4zm0 2h7v1H4zm0 2h7v1H4z" fill="currentColor" fill-rule="evenodd"/></svg>
